src/assets/img/smiles/4.svg

<svg width="66" height="66" viewBox="0 0 66 66" fill="none" xmlns="http://www.w3.org/2000/svg">
<path d="M60.179 33.086C60.179 49.702 46.707 63.172 30.089 63.172C13.471 63.172 0 49.702 0 33.086C0 16.47 13.471 3 30.089 3C46.707 3 60.179 16.47 60.179 33.086Z" fill="#EDC951"/>
<path d="M45.6469 23.776C45.6469 25.786 44.0179 27.415 42.0079 27.415C39.9969 27.415 38.3669 25.786 38.3669 23.776C38.3669 21.766 39.9969 20.137 42.0079 20.137C44.0179 20.137 45.6469 21.766 45.6469 23.776Z" fill="black"/>
<path d="M24.718 23.776C24.718 25.786 23.089 27.415 21.078 27.415C19.068 27.415 17.438 25.786 17.438 23.776C17.438 21.766 19.068 20.137 21.078 20.137C23.089 20.137 24.718 21.766 24.718 23.776Z" fill="black"/>
<path d="M34.374 50.737H29.319C22.916 50.737 17.708 45.592 17.708 39.268C17.708 38.439 18.379 37.768 19.208 37.768C20.036 37.768 20.708 38.439 20.708 39.268C20.708 44.017 24.49 47.737 29.319 47.737H34.374C39.202 47.737 42.985 44.079 42.985 39.408C42.985 38.579 43.656 37.908 44.485 37.908C45.313 37.908 45.985 38.579 45.985 39.408C45.985 45.761 40.885 50.737 34.374 50.737Z" fill="black"/>
<path d="M31.59 63.646C14.171 63.646 0 49.477 0 32.06C0 14.644 14.171 0.475006 31.59 0.475006C49.008 0.475006 63.18 14.644 63.18 32.06C63.18 49.477 49.008 63.646 31.59 63.646ZM31.59 3.47501C15.825 3.47501 3 16.298 3 32.06C3 47.823 15.825 60.647 31.59 60.647C47.354 60.647 60.18 47.823 60.18 32.06C60.18 16.298 47.354 3.47501 31.59 3.47501Z" fill="black"/>
</svg>

<?xml version="1.0" encoding="iso-8859-1"?>
<!-- Generator: Adobe Illustrator 19.1.0, SVG Export Plug-In . SVG Version: 6.00 Build 0)  -->
<svg version="1.1" id="Capa_1" xmlns="http://www.w3.org/2000/svg" xmlns:xlink="http://www.w3.org/1999/xlink" x="0px" y="0px"
	 viewBox="0 0 65.441 65.441" style="enable-background:new 0 0 65.441 65.441;" xml:space="preserve">
<g>
	<g id="group-2svg">
		<path id="path-1_10_" style="fill:#EDC951;" d="M65.441,34.881c0,16.616-13.472,30.086-30.09,30.086S5.262,51.497,5.262,34.881
			S18.733,4.795,35.351,4.795S65.441,18.265,65.441,34.881z"/>
		<path id="path-2_10_" d="M45.647,23.776c0,2.01-1.629,3.639-3.639,3.639c-2.011,0-3.641-1.629-3.641-3.639s1.63-3.639,3.641-3.639
			C44.018,20.137,45.647,21.766,45.647,23.776z"/>
		<path id="path-3_10_" d="M24.718,23.776c0,2.01-1.629,3.639-3.64,3.639c-2.01,0-3.64-1.629-3.64-3.639s1.63-3.639,3.64-3.639
			C23.089,20.137,24.718,21.766,24.718,23.776z"/>
		<path id="path-4_10_" d="M34.374,50.737h-5.055c-6.403,0-11.611-5.145-11.611-11.469c0-0.829,0.671-1.5,1.5-1.5
			c0.828,0,1.5,0.671,1.5,1.5c0,4.749,3.782,8.469,8.611,8.469h5.055c4.828,0,8.611-3.658,8.611-8.329c0-0.829,0.671-1.5,1.5-1.5
			c0.828,0,1.5,0.671,1.5,1.5C45.985,45.761,40.885,50.737,34.374,50.737z"/>
		<path id="path-5_10_" d="M31.59,63.646C14.171,63.646,0,49.477,0,32.06C0,14.644,14.171,0.475,31.59,0.475
			c17.418,0,31.59,14.169,31.59,31.585C63.18,49.477,49.008,63.646,31.59,63.646z M31.59,3.475C15.825,3.475,3,16.298,3,32.06
			c0,15.763,12.825,28.587,28.59,28.587c15.764,0,28.59-12.824,28.59-28.587C60.18,16.298,47.354,3.475,31.59,3.475z"/>
	</g>
</g>
<g>
</g>
<g>
</g>
<g>
</g>
<g>
</g>
<g>
</g>
<g>
</g>
<g>
</g>
<g>
</g>
<g>
</g>
<g>
</g>
<g>
</g>
<g>
</g>
<g>
</g>
<g>
</g>
<g>
</g>
</svg>
